-----BEGIN PGP SIGNATURE-----

iQIzBAABCgAdFiEEzbZuZxmzGwx/7TZnY+N4pQLIX7IFAmrJAhIACgkQY+N4pQLI
X7IKMg//cm/os3DpqGHDhpVttb4bYQAIQJ/fs1wzU9htlEStEZEV90wC7PaWQkwf
FMWBdA7leeaFYxsaUZsXpmiYw1sBQN/aHMExXsUA4okSMH9ixC3wUwmjlIrGTAsm
84c/7aoTYDStKg4mRpoNW6n1A+1rIGDqTjkTgKbIhgyKpbzP7fLvOfa/vSTuSlgn
Jzi/6w12BuqeNt36B6sYAsJyIieIz3H0QFYvIj1pFCTztlMi8/pAZkpIVR00eso1
8VacdTQb7YBeW071UAMRbZOVVuTOMdTUHeBSfLg974wQ62mw2V0b4+mlF2KzQQcx
X9ym3nLyV+EPlGhm0TCWSmMrDEeKy4FOfjGhkacB5tcvZwuSVxQ12GVTYDKsF3XG
Qudyf7XEvBNA/mKdYzaDBWpeurwqxiR3dhFR5AiJrJCF6mvmVhq/YzEgMJrjqHLE
Ysg8W+yNiACkipM6dtLfyxLapJaB3mz7GpxlSL0G0BZIEF3cPJz1u3bGgGqbfSxR
goVqNtfDLwmU69FZImrZqg0bLl9nSIfTH9PDtSOPV/dlDXmTrKcCZJSq2bWmqJqD
kwnbHBXuObHKKHBq0VXfx/NGv/HFLn75qsQvvUlhvzm0dknLAEIotmFEAA/U4xmA
f09He/uvX7/wmPBfcEVdwtxTd+Dni6o+DVmQGQOM8NHjxnmsrJI=
=C5VZ
-----END PGP SIGNATURE-----
